Icons/com_latedroid_juicedefender.svg

<svg viewBox="0 0 48 48" xmlns:xlink="http://www.w3.org/1999/xlink">
 <defs>
  <linearGradient id="0">
   <stop stop-opacity="0"/>
   <stop offset="1"/>
  </linearGradient>
  <linearGradient xlink:href="#0" id="1" gradientUnits="userSpaceOnUse" gradientTransform="translate(4e-7,-48)" y1="47" x2="0" y2="1"/>
  <clipPath id="2">
   <g transform="translate(0,-1004.3622)">
    <rect rx="4" y="1005.36" x="1" height="46" width="46" fill="#1890d0"/>
   </g>
  </clipPath>
  <clipPath id="3">
   <g transform="translate(0,-1004.3622)">
    <rect rx="4" y="1005.36" x="1" height="46" width="46" fill="#1890d0"/>
   </g>
  </clipPath>
 </defs>
 <g>
  <g transform="translate(0,-1004.3622)">
   <path d="m 5,1006.3622 c -2.216,0 -4,1.784 -4,4 l 0,37.25 c 0,2.216 1.784,4 4,4 l 38,0 c 2.216,0 4,-1.784 4,-4 l 0,-37.25 c 0,-2.216 -1.784,-4 -4,-4 l -38,0 z m -4,41.5 0,0.5 c 0,2.216 1.784,4 4,4 l 38,0 c 2.216,0 4,-1.784 4,-4 l 0,-0.5 c 0,2.216 -1.784,4 -4,4 l -38,0 c -2.216,0 -4,-1.784 -4,-4 z" opacity="0.02"/>
   <path d="m 1,1047.6122 0,0.25 c 0,2.216 1.784,4 4,4 l 38,0 c 2.216,0 4,-1.784 4,-4 l 0,-0.25 c 0,2.216 -1.784,4 -4,4 l -38,0 c -2.216,0 -4,-1.784 -4,-4 z" opacity="0.05"/>
   <rect width="46" height="46" x="1" y="1005.61" rx="4" opacity="0.1"/>
  </g>
 </g>
 <g>
  <g transform="translate(0,-1004.3622)">
   <rect rx="4" y="1005.36" x="1" height="46" width="46" fill="#dcdee0"/>
  </g>
 </g>
 <g>
  <rect transform="scale(1,-1)" width="46" height="46" x="1" y="-46.998" rx="4" opacity="0.1" fill="url(#1)"/>
 </g>
 <g>
  <g clip-path="url(#2)">
   <g opacity="0.1">
    <g>
     <path d="M 23.800781 12 C 23.800781 12 20.800781 14 13.800781 16 C 13.800781 16 10.800781 32 23.800781 38 L 23.800781 37.84375 C 23.902344 37.894531 24.003906 37.949219 24.113281 38 L 24.113281 12 C 24.113281 12 23.90625 12.121094 23.800781 12.1875 Z M 24.488281 12 L 24.488281 38 C 24.59375 37.949219 24.695312 37.894531 24.800781 37.84375 L 24.800781 38 C 37.800781 32 34.800781 16 34.800781 16 C 27.800781 14 24.800781 12 24.800781 12 L 24.800781 12.1875 C 24.691406 12.121094 24.488281 12 24.488281 12 Z M 24.488281 12 " fill-opacity="0.102" id="4"/>
     <path d="M 23.980469 11 C 23.980469 11 20.195312 13.152344 11.375 15.308594 C 11.375 15.308594 7.601562 32.539062 23.980469 39 C 40.394531 32.539062 36.628906 15.308594 36.628906 15.308594 C 27.792969 13.152344 23.980469 11 23.980469 11 Z M 23.980469 11 "/>
     <path d="M 16.625 21.1875 C 15.011719 21.21875 13.050781 21.8125 11.1875 22.65625 C 11.863281 28.148438 14.644531 35.320312 23.96875 39 C 31.980469 35.847656 35.195312 30.125 36.375 25.09375 C 32.53125 25.992188 28.640625 26.726562 26.34375 26.4375 C 23.011719 26.019531 21.601562 23.722656 19.09375 21.84375 C 18.46875 21.375 17.613281 21.167969 16.625 21.1875 Z M 16.625 21.1875 "/>
    </g>
   </g>
  </g>
 </g>
 <g>
  <g clip-path="url(#3)">
   <g transform="translate(0,-1)">
    <g>
     <use xlink:href="#4"/>
     <path d="M 23.980469 11 C 23.980469 11 20.195312 13.152344 11.375 15.308594 C 11.375 15.308594 7.601562 32.539062 23.980469 39 C 40.394531 32.539062 36.628906 15.308594 36.628906 15.308594 C 27.792969 13.152344 23.980469 11 23.980469 11 Z M 23.980469 11 " fill="#8795a4"/>
     <path d="M 16.625 21.1875 C 15.011719 21.21875 13.050781 21.8125 11.1875 22.65625 C 11.863281 28.148438 14.644531 35.320312 23.96875 39 C 31.980469 35.847656 35.195312 30.125 36.375 25.09375 C 32.53125 25.992188 28.640625 26.726562 26.34375 26.4375 C 23.011719 26.019531 21.601562 23.722656 19.09375 21.84375 C 18.46875 21.375 17.613281 21.167969 16.625 21.1875 Z M 16.625 21.1875 " fill="#ecd04c"/>
    </g>
   </g>
  </g>
 </g>
 <g>
  <g transform="translate(0,-1004.3622)">
   <path d="m 1,1043.3622 0,4 c 0,2.216 1.784,4 4,4 l 38,0 c 2.216,0 4,-1.784 4,-4 l 0,-4 c 0,2.216 -1.784,4 -4,4 l -38,0 c -2.216,0 -4,-1.784 -4,-4 z" opacity="0.1"/>
  </g>
 </g>
</svg>

<svg viewBox="0 0 48 48" xmlns:xlink="http://www.w3.org/1999/xlink"><defs><linearGradient id="linearGradient3764" x1="1" x2="47" gradientUnits="userSpaceOnUse" gradientTransform="translate(-48.000001,0.00221467)"><stop stop-color="#d1d4d7" stop-opacity="1"/><stop offset="1" stop-color="#dcdee0" stop-opacity="1"/></linearGradient><clipPath id="clipPath-332325764"><g transform="translate(0,-1004.3622)"><rect rx="4" y="1005.36" x="1" height="46" width="46" fill="#1890d0"/></g></clipPath><clipPath id="clipPath-345116077"><g transform="translate(0,-1004.3622)"><rect rx="4" y="1005.36" x="1" height="46" width="46" fill="#1890d0"/></g></clipPath></defs><g><path d="m 1 43 l 0 0.25 c 0 2.216 1.784 4 4 4 l 38 0 c 2.216 0 4 -1.784 4 -4 l 0 -0.25 c 0 2.216 -1.784 4 -4 4 l -38 0 c -2.216 0 -4 -1.784 -4 -4 z m 0 0.5 l 0 0.5 c 0 2.216 1.784 4 4 4 l 38 0 c 2.216 0 4 -1.784 4 -4 l 0 -0.5 c 0 2.216 -1.784 4 -4 4 l -38 0 c -2.216 0 -4 -1.784 -4 -4 z" opacity="0.02"/><path d="m 1 43.25 l 0 0.25 c 0 2.216 1.784 4 4 4 l 38 0 c 2.216 0 4 -1.784 4 -4 l 0 -0.25 c 0 2.216 -1.784 4 -4 4 l -38 0 c -2.216 0 -4 -1.784 -4 -4 z" opacity="0.05"/><path d="m 1 43 l 0 0.25 c 0 2.216 1.784 4 4 4 l 38 0 c 2.216 0 4 -1.784 4 -4 l 0 -0.25 c 0 2.216 -1.784 4 -4 4 l -38 0 c -2.216 0 -4 -1.784 -4 -4 z" opacity="0.1"/></g><g><rect width="46" height="46" x="-47" y="1" rx="4" transform="matrix(0,-1,1,0,0,0)" fill="url(#linearGradient3764)" fill-opacity="1"/></g><g><g clip-path="url(#clipPath-332325764)"><g opacity="0.1"><!-- color: #dcdee0 --><g><path d="m 23.801 12 c 0 0 -3 2 -10 4 c 0 0 -3 16 10 22 l 0 -0.156 c 0.102 0.051 0.203 0.105 0.313 0.156 l 0 -26 c 0 0 -0.207 0.121 -0.313 0.188 m 0.688 -0.188 l 0 26 c 0.105 -0.051 0.207 -0.105 0.313 -0.156 l 0 0.156 c 13 -6 10 -22 10 -22 c -7 -2 -10 -4 -10 -4 l 0 0.188 c -0.109 -0.066 -0.313 -0.188 -0.313 -0.188 m 0 0" fill-opacity="0.102" id="SVGCleanerId_0"/><path d="m 23.98 11 c 0 0 -3.785 2.152 -12.605 4.309 c 0 0 -3.773 17.23 12.605 23.691 c 16.414 -6.461 12.648 -23.691 12.648 -23.691 c -8.836 -2.156 -12.648 -4.309 -12.648 -4.309 m 0 0" fill="#000"/><path d="m 16.625 21.19 c -1.613 0.031 -3.574 0.625 -5.438 1.469 c 0.676 5.492 3.457 12.664 12.781 16.344 c 8.01 -3.152 11.227 -8.875 12.406 -13.906 c -3.844 0.898 -7.734 1.633 -10.03 1.344 c -3.332 -0.418 -4.742 -2.715 -7.25 -4.594 c -0.625 -0.469 -1.48 -0.676 -2.469 -0.656 m 0 0" fill="#000"/></g></g></g></g><g><g clip-path="url(#clipPath-345116077)"><g transform="translate(0,-1)"><!-- color: #dcdee0 --><g><use xlink:href="#SVGCleanerId_0"/><path d="m 23.98 11 c 0 0 -3.785 2.152 -12.605 4.309 c 0 0 -3.773 17.23 12.605 23.691 c 16.414 -6.461 12.648 -23.691 12.648 -23.691 c -8.836 -2.156 -12.648 -4.309 -12.648 -4.309 m 0 0" fill="#8795a4"/><path d="m 16.625 21.19 c -1.613 0.031 -3.574 0.625 -5.438 1.469 c 0.676 5.492 3.457 12.664 12.781 16.344 c 8.01 -3.152 11.227 -8.875 12.406 -13.906 c -3.844 0.898 -7.734 1.633 -10.03 1.344 c -3.332 -0.418 -4.742 -2.715 -7.25 -4.594 c -0.625 -0.469 -1.48 -0.676 -2.469 -0.656 m 0 0" fill="#ecd04c"/></g></g></g></g><g><g transform="translate(0,-1004.3622)"><path d="m 1 1043.36 0 4 c 0 2.216 1.784 4 4 4 l 38 0 c 2.216 0 4 -1.784 4 -4 l 0 -4 c 0 2.216 -1.784 4 -4 4 l -38 0 c -2.216 0 -4 -1.784 -4 -4 z" opacity="0.1"/></g></g></svg>
